X: 1
T: Colonel McBain
R: reel
M: 4/4
L: 1/8
K: Emin
(3GFE BE (3GFE BE|(3FED AD (3FED AD|(3GFE BE (3GFE BE|AGFG E2 EF|
(3GFE BE (3GFE BE|ABAG FD D2|G2 GF GBdB|AGFG E2 EF|
G2 GF GBdB|ABAG FA A2|(3Bcd ed efge| fedf e2 f2|
efed B2 d2|ABAG FD D2|G2 GF GBdB|AGFG E2 EF|


Tune 102	Setting 12662

